!!!COM: Beethoven, Ludwig van
!!!CDT: 1770///-1827///
!!!OTL: Piano Sonata no. 28 in A major
!!!OPS: 101
!!!OMV: 1
!!!OMD: Allegretto ma non troppo
**kern	**kern	**dynam
*staff2	*staff1	*staff1/2
*Ipiano	*Ipiano	*Ipiano
*clefF4	*clefG2	*clefG2
*k[f#c#g#]	*k[f#c#g#]	*k[f#c#g#]
*A:	*A:	*A:
*M6/8	*M6/8	*M6/8
*MM116	*MM116	*MM116
=1-	=1-	=1-
*^	*^	*
!!LO:TX:a:t=Un poco animato e col più profondo intimo sentimento.
(4E	[2.EE	(4g#	8eL	p <
.	.	.	8B	.
8D#	.	8a	8f#J	.
4Dn	.	4b	8g#L	.
.	.	.	8e	.
8C#	.	8cc#	[8aJ	[
=2	=2	=2	=2	=2
4.BB	4.EE]	4ee	8aL]	>
.	.	.	8f#	.
.	.	8dd	8bJ	]
4E)	4EE	4b)	4g#	.
8r	8r	[8a	8ryy	.
=3	=3	=3	=3	=3
4f#	4r	(4aa	8a]	.
.	.	.	[4a	.
8e	8r	8gg#	.	.
4d	(4A.	4ff#	8a]	.
.	.	.	[4a	.
8c#	.	8ee	.	.
=4	=4	=4	=4	=4
[4.c#	4C#	4ff#	8a]	.
.	.	.	[4a	.
.	8D	[8ee)	.	.
(8c#L]	4.E)	(8eeL]	8aL]	.
8A	.	8cc#	8e	.
8G#J)	.	8bJ)	8eJ	.
!!LO:LB:g=original
=5	=5	=5	=5	=5
!!LO:TX:a:B:t=Poco ritardando
(4E	[2.EE	(4g#	8eL	<
.	.	.	8B	.
8D#	.	8a	8f#J	.
4Dn	.	4b	8g#L	.
.	.	.	8e	.
8C#	.	8cc#	[8aJ	[
=6	=6	=6	=6	=6
8BBL	4EE]	4ee	8aL]	>
8E	.	.	8g#	.
8E#J)	8EE#	8dd)	8g# 8bJ	]
4.F#;	4.FF#;	4.cc#;	4.a;	.
*v	*v	*	*	*
=7	=7	=7	=7
!!LO:TX:a:B:t=Tempo 1o
(4.FF# 4.F#	(4cc#	8aL	<
.	.	8d#	.
.	8b 8dd#	8aJ	.
4EEn 4En	4b 4ee	8g#L	.
.	.	8e	.
8DD# 8D#	8ff#	8f# 8bJ	.
=8	=8	=8	=8
4EE 4E	4gg#	8bL	.
.	.	8g#	.
8CC# 8C#)	8ee 8aa	8aJ	.
4GGG# 4GG#	4bb	8eeL	.
.	.	8b	.
8GGG# 8GG#	8bb#)	8dd# 8ff#J	.
=9	=9	=9	=9
(4.GGG# 4.GG#	[4.bb#	4.dd# 4.ff#	mf
4.AAA 4.AA	(8bb#L]	4.cc# 4.ee	.
.	8ddd#	.	.
.	8ccc#J)	.	.
!!LO:LB:g=original
=10	=10	=10	=10
4.AAA# 4.AA#	[4.ff#	4.ee	.
4.BBB) 4.BB	(8ff#L]	4.a 4.dd#	.
.	8gg#	.	.
.	8aaJ)	.	.
=11	=11	=11	=11
(4.CC# 4.C#	(4ee	4.e 4.a	>
.	8dd#	.	.
4DD# 4D#	4cc#	4f# 4a	.
8FF#) 8F#	8b	8d# 8a)	.
=12	=12	=12	=12
[4.F# [4.B	(4.b	[4.d# [4.a	p
8F#] 8BL]	8dd#L	8d#] 8aL]	.
8D# 8B	8ff#	8f# 8a	.
8E 8BJ	8eeJ)	8e 8g#J	.
=13	=13	=13	=13
[4.F# [4.B [4.d#	4.bSSs	4.any	.
8F#] 8B] 8d#L]	(8bbL	8rg	.
8F# 8B 8d#	8aa	8bL	.
8G# 8B 8eJ	8gg#J)	8bJ	.
=14	=14	=14	=14
4A 4c# 4e	((8gg#L	4cc#	<
.	8ff#)	.	.
8A# 8c# 8f#	8ee'J)	8cc#	.
*clefG2	*	*	*
4B 4d# 4f#	((8eeL	4b	.
.	8dd#)	.	.
8c# 8e	8ee'J)	8f# 8a#	.
*clefF4	*	*	*
*	*v	*v	*
!!LO:LB:g=original
=15	=15	=15
4d#	4f# 4an (>4b	>
8e	8g#' 8b'	.
4B	4d#' 4f#' 4b'	.
8BB	8d#' 8f#' 8a')	.
=16	=16	=16
*	*^	*
4.C#	4.g#	4.e	.
((8eL	4r	4r	.
8f#)	.	.	.
8g#'J)	8r	8r	.
*	*v	*v	*
=17	=17	=17
*^	*	*
4.ryy	4.A#	4r	.
.	.	8r	.
8d#L	4.An	((8ff#L	.
8c#	.	8ee)	.
8BJ	.	8dd#'J)	.
=18	=18	=18	=18
*	*	*^	*
4.e#	4.G#	4.bb	4.ddn	.
((8FF#L	4.ryy	(4.ccc#	4.aa	.
8GG#)	.	.	.	.
8AA'J)	.	.	.	.
*v	*v	*	*	*
*	*v	*v	*
=19	=19	=19
8BBL	[4.g# [4.ee [4.gg#)	<
(8A#	.	.
8BJ	.	.
4e)	((8g#] 8ee] 8gg#L]	.
.	8f##)	.
8r	8g#'J)	.
=20	=20	=20
4r	8b/	.
.	8r	.
!	!	!LO:DY:rj
[8BBB [8BB	(8G# 8B 8e	p
4BBB] 4BB]	4B 4e 4g#	.
8AAA 8AA	8B) 8d# 8f#	.
!!LO:LB:g=original
=21	=21	=21
8GGG# 8GG#	4.B 4.e [4.b	<
(8A#L	.	.
8BJ	.	.
*clefG2	*	*
4g#)	(<8bL]	.
.	8a#	.
8r	8bJ	.
*clefF4	*	*
=22	=22	=22
4r	8gg#)	.
.	8r	.
[8BBB [8BB	(8G# 8B 8e	p
4BBB] 4BB]	4B 4e 4g#	.
8AAA 8AA	8B) 8d# 8f#	.
=23	=23	=23
8GGG# 8GG#	4.B 4.e 4.b	<
(8A#L	.	.
8BJ	.	.
*clefG2	*	*
8b)	8r	.
8r	(8a#L<	.
8r	8bJ	.
*clefF4	*	*
=24	=24	=24
*	*8va	*
8r	8eeL<	.
8r	8gg#	.
!LO:DY:rj	!	!
[8BBBz [8BBz	16bbL	.
.	16eeeJJ	.
4BBB] 4BB]	8ggg#Lz	.
.	8bbbJ)	.
*	*X8va	*
8BB 8B	8f# 8a 8dd#	p
=25	=25	=25
(<4.EE 4.E	4e 4g# 4ee	.
.	8r	.
!LO:TX:a:i:t=expressivo semplice	!	!
4.BB 4.B	4r	.
.	8e 8g# 8b	.
=26	=26	=26
4.GG# 4.BB 4.G#	4e 4b	.
.	8r	.
4.FF#) 4.BB 4.F#	4r	.
.	8d# 8a 8dd#	.
!!LO:LB:g=original
=27	=27	=27
(4.EE 4.BB 4.E	4e\ 4g#\ 4ee\	.
.	8r	.
4.BB	4r	.
.	8b 8bb	.
=28	=28	=28
4.GG# 4.BB	4b 4bb	.
.	8r	.
4.FF#) 4.BB	4r	.
.	8dd# 8aa 8ddd#	.
=29	=29	=29
*	*8va	*
4EE 4BB	4ee 4gg# 4eee	.
[8EE [8BB [8E	[8ff# [8aa [8fff#	.
4EE] 4BB] 4E]	4ff#] 4aa] 4fff#]	.
[8EE [8BB [8E	[8ee [8gg# [8eee	.
=30	=30	=30
4EE] 4BB] 4E]	4ee] 4gg#] 4eee]	.
[8EE [8BB [8E	[8ff# [8aa [8fff#	.
4EE] 4BB] 4E]	4ff#] 4aa] 4fff#]	.
[8EE [8BB [8E	[8ee [8gg# [8eee	.
=31	=31	=31
4EE] 4BB] 4E]	4ee] 4gg#] 4eee]	.
[8EE [8BB [8D#	[8aa [8fff# [8aaa	.
4EE] 4BB] 4D#]	4aa] 4fff#] 4aaa]	.
[8EE [8BB [8E	[8gg# [8eee [8ggg#	.
=32	=32	=32
4EE] 4BB] 4E]	4gg#] 4eee] 4ggg#]	.
[8EE [8BB [8E	[8ff# [8aa [8ddd# [8fff#	.
4EE] 4BB] 4E]	4ff#] 4aa] 4ddd#] 4fff#]	.
[8EE [8BB [8E	[8ee\ [8gg#\ [8eee\	.
!!LO:LB:g=original
=33	=33	=33
4EE] 4BB] 4E]	4ee] 4gg#] 4eee]	.
*	*X8va	*
[8E [8G# [8B	[8g# [8b	.
4E] 4G#] 4B]	4g#] 4b]	.
[8E [8G# [8B	[8g# [8b	.
=34	=34	=34
4E] 4G#] 4B]	4g#] 4b]	.
!	!	!LO:DY:rj
8r	[8g# [8b	pp
4r	4g#] 4b]	.
8r	[8g# [8b	.
=35	=35	=35
*^	*	*
(4E	8EL	2.g#_ 2.b_	.
.	[8BB	.	.
8F#	8BBJ_	.	.
4G#	8BB]	.	.
.	[4E	.	.
8A	.	.	.
=36	=36	=36	=36
4c#	8E]	4.g#_ 4.b_	.
.	[4E	.	.
8B	.	.	.
4G#)	4E]	4g#] 4b]	.
8r	8r	[8g# [8b [8cc#	.
*v	*v	*	*
=37	=37	=37
2.r	4g#] 4b] 4cc#]	.
.	[8g# [8b [8cc#	.
.	4g#] 4b] 4cc#]	.
.	[8g# [8b [8cc#	.
=38	=38	=38
*^	*	*
(4E#	8E#	2.g#_ 2.b_ 2.cc#_	.
.	[4C#	.	.
8F#	.	.	.
4G#	8C#]	.	.
.	[4C#	.	.
8A	.	.	.
!!LO:LB:g=original
=39	=39	=39	=39
4c#	8C#]	4.g#_ 4.b_ 4.cc#_	.
.	[4C#	.	.
8B	.	.	.
4G#)	4C#]	4g#] 4b] 4cc#]	.
8r	8r	[8g# [8b [8cc#	.
*v	*v	*	*
=40	=40	=40
4r	4g#] 4b] 4cc#]	.
8r	[8g# [8b [8cc#	.
4r	4g#] 4b] 4cc#]	.
[8FFF# [8FF#	[8a/ [8cc#/	.
=41	=41	=41
*	*^	*
4FFF#] 4FF#]	4cc#] (4ff#	8a]	<
.	.	[4cc#	.
[8FFF# [8FF#	8ee# 8gg#	.	.
4FFF#] 4FF#]	4ff# 4aa	8cc#]	.
.	.	[4cc#	.
[8FFF# [8FF#	8gg# 8bb	.	[[
=42	=42	=42	=42
4FFF#] 4FF#]	4aa 4ddd	8cc#]	f
.	.	[4cc#	.
[8FFF# [8FF#	8aa 8ccc#	.	.
4FFF#] 4FF#]	4aa)	8cc#]	.
.	.	[4cc#	p
*clefG2	*	*	*
[8f# [8a	(8aa	.	.
=43	=43	=43	=43
4f#] 4a]	4ddd	8cc#]	.
.	.	[4cc#	.
[8f# [8a	8ccc#	.	.
4f#] 4a]	4aa)	8cc#]	.
.	.	[4cc#	.
*clefF4	*	*	*
[8EE	[<8ggn ([8aa	.	f
=44	=44	=44	=44
4EE]	4gg] 4aa] 4ddd	8cc#]	.
.	.	[4cc#	.
[8EE	[<8ggn 8ccc#	.	.
4EE]	4gg] 4aa)	8cc#]	.
.	.	[4cc#	.
*clefG2	*	*	*
[8e [8gn [8a	[8gg ([8aa	.	p
!!LO:LB:g=original
=45	=45	=45	=45
4e] 4g] 4a]	4gg] 4aa] 4ddd	8cc#]	.
.	.	[4cc#	.
[8e [8gn [8a	[<8ggn 8ccc#	.	.
4e] 4g] 4a]	4gg] 4aa)	8cc#L]	<
.	.	8cc#J	.
[8d [8f# [8a	(8aa	(8ff#	.
=46	=46	=46	=46
*	*8va	*8va	*
4d] 4f#] 4a]	4eee	8ff#)	.
.	.	[4ff#	.
[8d [8f#	8ddd	.	.
4d] 4f#]	4aa)	8ff#]	.
.	.	[4ff#	.
[8A# [8c# [8f#	(8ccc#	.	.
=47	=47	=47	=47
4A#] 4c#] 4f#]	4gggn	8ff#]	.
.	.	[4ff#	.
[8A# [8c# [8f#	8fff#	.	.
4A#] 4c#] 4f#]	4ccc#)	8ff#]	.
.	.	[4ff#	.
[8B [8d [8f#	(8ddd	.	.
=48	=48	=48	=48
4B] 4d] 4f#]	4gggn	8ff#]	.
.	.	[4ff#	.
8B 8d 8f#	8fff#	.	sf
4A# 4c# 4f#	4bb#	8ff#]	.
.	.	4ff#	.
8A# 8c# 8f#	8ccc#)	.	sf
*	*X8va	*X8va	*
=49	=49	=49	=49
4An 4c# 4f#	(4ee#	(8cc#L	.
.	.	8b#	.
8A 8c# 8f#	8ff#)	8cc#J)	sf
4G# 4d#	4cc#	(8f#L	.
.	.	8e#	.
8G# 8d#	8b#	8f#J)	sf
*clefF4	*	*	*
*	*v	*v	*
=50	=50	=50
8r	4b# 4ff# (4bb#	f
8GGG#' 8GG#'L	.	.
8BBB#' 8BB#'J	8a 8dd# 8ff# 8aa)	.
8r	4g# 4ee (4gg#	.
8CC#' 8C#'L	.	.
8DD#' 8D#'J	8f# 8a 8dd# 8ff#)	.
!!LO:LB:g=original
=51	=51	=51
8r	(4e 4g# 4ee	.
8EE' 8E'L	.	.
8FF#' 8F#'J	8d#) 8a 8dd#	.
8r	(4c# 4e 4cc#	.
8FF##' 8F##'L	.	.
8GG#' 8G#'J	8B#) 8d# 8b#	.
=52	=52	=52
4.BBB#; 4.BB#;	4.d#; 4.f#; 4.g#; 4.dd#;	p
*clefG2	*	*
(4B# 4f#	4g# (4dd#	.
8c#) 8e	8g# 8ee)	.
*clefF4	*	*
=53	=53	=53
*	*^	*
[4C# [4E (4G#	4.e 4.ee	(4g#	.
8C#] 8E] 8A)	.	8a)	.
*clefG2	*	*	*
(4c# 4e	(4ee	4r	.
8d#) 8f#	8ff#)	8a 8b	.
*clefF4	*	*	*
=54	=54	=54	=54
*^	*	*	*
(4A#	4.D#	4.f# 4.ff#	(4a#	.
8B)	.	.	8b)	.
*v	*v	*	*	*
*clefG2	*	*	*
*^	*	*	*
(4d# 4f#	4.ryy	(4ff#	4an 4b	.
8e)	.	8gg#)	8g# 8b	.
*	*	*v	*v	*
=55	=55	=55	=55
4dd	8r	4ffn (4gg#	.
.	[4e	.	.
8ccn	.	8ee 8aa	.
4b	8e]	4dd 4bb	.
.	4e	.	.
8a	.	8ccn 8cccn	.
*v	*v	*	*
*clefF4	*	*
=56	=56	=56
*	*^	*
(<4E	4.ryy	4dd 4gg# 4eee	.
8Fn	.	8dd 8aa 8ddd)	.
4G#	[4.ee [4.bb	(4.dd'	.
8A	.	.	.
*clefG2	*	*	*
!!LO:LB:g=original
=57	=57	=57	=57
*^	*	*	*
8r	4B	(4ee]) 4bb]	4dd	.
(8g#L	.	.	.	.
8aJ	8cn	8aa	8r	.
4fn	4d	4gg#	4b	.
8f#)	8d#)	8aa)	8ccn	.
*v	*v	*	*	*
*clefF4	*	*	*
=58	=58	=58	=58
*^	*	*	*
(4e	[2.E	(4gg#	(>8gg#	.
.	.	.	4b	.
8d#	.	8ff# 8aa)	.	.
4dn	.	4bb	8gg#L	.
.	.	.	8ee	.
8c#)	.	8ccc#	8aaJ	.
*v	*v	*	*	*
*	*v	*v	*
=59	=59	=59
8E] 8BL	4ee 4gg# 4eee	.
[<8E	.	.
8E_ 8F# 8AJ	8dd 8aa 8ddd	.
8E] 8G# 8BL	8b 8bb)	.
8GG# 8E 8G#	8B 8e (8bL	<
8AA 8E 8AJ	8c# 8e 8cc#J	.
=60	=60	=60
8BB 8BL	4d 4a 4dd	.
8BBB 8BB	.	.
8BBB# 8BB#J	8d# 8a 8dd#	.
4CC# 4C#	4e 4a 4ee	.
8CC# 8C#	8g# 8b 8ee#)	.
=61	=61	=61
*	*^	*
4.CC# 4.C#	[4.ee#	4.g# 4.b	mf
4.DD 4.D	(8ee#L]	4.f# 4.a	.
.	8gg#	.	.
.	8ff#J)	.	.
=62	=62	=62	=62
4.DD# 4.D#	[4.b	4.f# 4.a	.
4.EE 4.E	(8bL]	4.g#	.
.	8cc#	.	.
.	8ddJ)	.	.
!!LO:LB:g=original
=63	=63	=63	=63
!	!	!	!LO:HP:i:t=dim.
4.FF#\ 4.F#\	(4a	4.A 4.d	>
.	8g#	.	.
4.GG#\ 4.G#\	4f#	4.B 4.d	.
.	8e)	.	.
=64	=64	=64	=64
[4.BB [4.E [4.B	(4.e	[4.d	.
8BB] 8E] (8BL]	8g#L	8dL]	.
8GG# 8E 8G#	8b	8d	.
8AA 8E 8AJ)	8aJ)	8c#J	.
=65	=65	=65	=65
[4.BB [4.E [4.G#	4.eSSs	4.d	.
8BB] 8E] (8G#L]	(8eeL	8re	.
8BB 8E 8G#	8e 8ddn	4ryy	.
8C# 8E 8AJ)	8e 8cc#J)	.	.
=66	=66	=66	=66
4D 4F# 4A	((8cc#L	4f#	<
.	8b)	.	.
8D# 8F# 8A	8a'J)	8B 8f#	.
4E 4G#	((8aL	4B 4e	.
.	8g#)	.	.
8F# 8A	8a'J)	8B 8d#	.
*	*v	*v	*
=67	=67	=67
4G#	4B 4dn (4e	.
8A	8c# 8e	.
!	!	!LO:HP:i:t-dim.
(8EL<	4G#' 4B' 4e'	>
8EE	.	.
8EE#J)	8G# 8B 8d)	.
=68	=68	=68
4.FF#	4.A 4.c#	.
*clefG2	*	*
((8aL	4r	.
8b)	.	.
8cc#'J)	8r	.
!!LO:LB:g=original
=69	=69	=69
*^	*	*
4.d#	4.d#	4r	.
.	.	8r	.
((8g#L	4.dn	((8bbL	.
8a)	.	8aa)	.
8b'J)	.	8gg#'J)	.
=70	=70	=70	=70
4.a#	4.c#	4.ggn 4.eee	.
*v	*v	*	*
*clefF4	*	*
*^	*	*
((8BBL	4.ryy	4.ddd (4.fff#	.
8C#)	.	.	.
8D'J)	.	.	.
*v	*v	*	*
=71	=71	=71
8EL	[4.cc# [4.aa [4.ccc#)	<
(8d#	.	.
8eJ	.	.
4a)	8cc#] 8aa] 8ccc#L]	.
.	(8b#	.
8r	8cc#J	.
=72	=72	=72
4r	8ee)	.
.	8r	.
!	!	!LO:DY:rj
[8EE [8E	(8c# 8e 8a	p
4EE] 4E]	4e 4a 4cc#	.
8DD 8D	8e) 8g# 8b	.
=73	=73	=73
8CC# 8C#	4.e\ 4.a\ [4.ee\	.
*clefG2	*	*
(8d#L	.	<
8eJ)	.	.
4cc#	8eeL]	.
.	(8dd#	.
8r	8eeJ	.
!!LO:LB:g=original
=74	=74	=74
4r	8ccc#)	.
.	8r	.
*clefF4	*	*
[8EE [8E	(8c# 8e 8a	p
4EE] 4E]	4e 4a 4cc#	.
8DD 8D	8e) 8g# 8b	.
=75	=75	=75
*	*^	*
8CC# 8C#	4.a 4.ee	4.e	<
*clefG2	*	*	*
(8d#L	.	.	.
8eJ)	.	.	.
4ee	4.ryy	8r	.
.	.	(>8dd#L	.
8r	.	8eeJ	.
*	*v	*v	*
=76	=76	=76
4r	8gg#L	.
.	8aa	.
*clefF4	*	*
!LO:DY:rj	!	!
[8EEz [8Ez	8ccc#J	.
4EE] 4E]	8eeeLz	.
.	8aaaJ)	.
8EE 8E	8B' 8d' 8g#'	p
=77	=77	=77
(4.AAA 4.AA	4c# 4a	.
.	8r	.
4.EE 4.E	4r	.
.	8c# 8e	.
=78	=78	=78
4.CC# 4.EE 4.C#	4A 4e	.
.	8r	.
4.BBB 4.EE 4.BB	4r	.
.	8d 8e 8g#	.
!!LO:LB:g=original
=79	=79	=79
*^	*	*
4.AAA 4.EE 4.AA	4.ryy	4c# 4e 4a	.
.	.	8r	.
4EE	4.EE	4r	.
8E	.	8e 8cc# 8ee	.
*v	*v	*	*
=80	=80	=80
4.CC# 4.EE 4.C#	4e 4a 4ee	.
.	8r	.
4.BBB 4.EE 4.BB	4r	.
.	8g# 8dd 8ee 8gg#	.
=81	=81	=81
4AAA) 4EE 4AA	4a 4cc# 4aa	.
[8AAA [8EE [8AA	[8b [8dd [8bb	.
4AAA] 4EE] 4AA]	4b] 4dd] 4bb]	.
[8AAA [8EE [8AA	[8a [8cc# [8aa	.
=82	=82	=82
4AAA] 4EE] 4AA]	4a] 4cc#] 4aa]	.
[8AAA [8EE [8AA	[8b [8dd [8bb	.
4AAA] 4EE] 4AA]	4b] 4dd] 4bb]	.
[8AAA [8EE [8AA	[8a [8cc# [8aa	.
=83	=83	=83
4AAA] 4EE] 4AA]	4a] 4cc#] 4aa]	.
[8AA [8E [8G#	[8dd [8bb [8ddd	.
4AA] 4E] 4G#]	4dd] 4bb] 4ddd]	.
[8AA [8E [8A	[8cc# [8aa [8ccc#	.
=84	=84	=84
4AA] 4E] 4A]	4cc#] 4aa] 4ccc#]	.
[8AA [8D [8E [8G#	[8b [8gg# [8bb	.
4AA] 4D] 4E] 4G#]	4b] 4gg#] 4bb]	.
[8AA [8C# [8E [8A	[8a [8cc# [8aa	.
!!LO:LB:g=original
=85	=85	=85
4AA] 4C#] 4E] 4A]	4a] 4cc#] 4aa]	.
[8AA [8C# [8E [8Gn [8B-	[8gn [8b- [8ee [8ggn	<
4AA] 4C#] 4E] 4G] 4B-]	4g] 4b-] 4ee] 4gg]	.
[8AA [8D [8Fn [8Bn	[8fn [8g# [8bn ([8dd [8ffn	.
=86	=86	=86
4AA] 4D] 4F] 4B]	4f] 4g#] 4b] 4dd] 4ff])	.
[8AA [8D [8Fn [8B	[8fn [8g#X [8b [8dd [8ffn	.
4AA] 4D] 4F] 4B]	4f] 4g#] 4b] 4dd] 4ff]	.
[8AA [8D [8F [8B	[8f [8g# [8b [8dd [8ff	ff
=87	=87	=87
2.AA_ 2.D_ 2.F_ 2.B_	2.f_ 2.g#_ 2.b_ 2.dd_ 2.ff_	.
=88	=88	=88
!	!	!LO:HP:i:t-dim.
8AA] 8D] 8F] 8BL]	4.f] 4.g#] 4.b] 4.dd] (4.ff]	>
(8A	.	.
8BJ	.	.
8c#L	4.a 4.ee	.
8d	.	.
8eJ)	.	.
=89	=89	=89
*	*^	*
(4.F#X	2.dd#)	[4.a	.
4.Fn)	.	(>8aL]	.
.	.	8b	.
.	.	8ccnJ)	.
=90	=90	=90	=90
*^	*	*	*
(8AL	2.E	[4.cc#X [4.ee	(>8c#XL	.
8B	.	.	8d	.
8c#XJ	.	.	8eJ)	.
8c#L	.	8cc#] (8eeL]	8eL	.
8d	.	8b 8dd	8f#X	.
8d#J)	.	8a 8cc#J)	8f#J	.
!!LO:LB:g=original
=91	=91	=91	=91	=91
(<8eL	4.E	(8cc#L	4a	.
8dn	.	8b	.	.
8c#J)	.	8aJ)	8e	.
(<8BL	4.E	4.g#	(>8dL	.
8d	.	.	8f#	.
16c#L	.	.	16eL	.
16BJJ)	.	.	16dJJ)	.
*v	*v	*	*	*
*	*v	*v	*
=92	=92	=92
4.AA/ 4.A/	((8c# 8aL	p
.	8b)	.
.	8cc#'J)	<
*clefG2	*	*
(4.f# 4.a	4.cc# (4.aa	.
=93	=93	=93
4.fn 4.g#	4.dd 4.gg# 4.bb	.
4.A 4.d# 4.f#	4.ccn 4.ff# 4.cccn	.
=94	=94	=94
4.G# 4.B 4.dn 4.e	4.ee 4.bb 4.eee	>
4.A 4.c# 4.e)	8ccc#XL	.
.	8aa	.
.	8eeJ)	]
*clefF4	*	*
=95	=95	=95
*^	*^	*
8dL	4.D	4.ryy	(8ff#L	p
8B	.	.	8dd	.
8AJ	.	.	8cc#J	.
4.ryy	4E 4G#	4b	8bL	.
.	.	.	8eJ	.
*ped	*	*	*	*
!	!	!	!	!LO:HP:i:t=dim.
.	[8E [8G# [8B	[8e [8g# [8b [8ee)	8ryy	>
*v	*v	*	*	*
*	*v	*v	*
=96	=96	=96
*Xped	*	*
4E] 4G#] 4B]	4e] 4g#] 4b] 4ee]	.
8r	8r	.
4r	4r	.
*ped	*	*
[8A [8c#	[8e [8a [8cc#	.
!!LO:LB:g=original
=97	=97	=97
*Xped	*	*
4A] 4c#]	4e] 4a] 4cc#]	.
8r	8r	.
4r	4r	.
*ped	*	*
[8EE [8E	[8G# [8B [8e	.
=98	=98	=98
*Xped	*	*
8EE] 8E]	8G#] 8B] 8e]	.
!LO:TX:a:B:t=Ritard.	!	!
(8AL	8r	.
8G#J)	8r	.
(8AL	4r	.
8B)	.	.
8c#'J	8r	.
=99	=99	=99
(<4.D#	4r	.
.	8r	.
!LO:TX:a:B:t=Ritardando	!	!
4.Dn 4.E	(8BL	.
.	8A	.
.	8G#J)	.
=100	=100	=100
*	*^	*
4.C# 4.E	4.e	4.ryy	.
4.BB 4.E	(8eeL	(8b 8ddL	<
.	8ee	8a 8cc#	.
.	8eeJ)	8g# 8bJ)	[
=101	=101	=101	=101
4.AA 4.E	(8aaL	4cc# 4ee	.
.	8bbJ	.	.
.	8eee)	8aa 8ccc#	.
*	*8va	*	*
4EE 4E	((8eeeL	4bb 4ddd	.
.	8fff#)	.	>
[8EE)	8ggg#'J)	8bb 8ddd	]]
*	*v	*v	*
=102	=102	=102
*^	*	*
4EE]	[4.AAA	((4.bb 4.ddd 4.ggg#	.
[<8EE	.	.	.
4.AA;	4.AAA;y] 4.EE;y]	4.aa; 4.ccc#; 4.aaa;))	.
*	*	*X8va	*
*v	*v	*	*
=||	=||	=||
*-	*-	*-
!!!RDF**dynam: > = dimin.
!!!RDF**kern: > = above
!!!RDF**kern: < = below
!!!verovio: beamFrenchStyle
!!!LOR: Durand 1915, plates 9327/9328, Paul Dukas, ed.
!!!PED: Dukas, Paul
!!!URL-vhv: https://verovio.humdrum.org/?file=beethoven/sonatas/sonata28-1.krn
!!!URL-pdf: https://github.com/craigsapp/beethoven-piano-sonatas/blob/master/reference-edition/sonata28-1.pdf
!!!ENC: Craig Stuart Sapp
!!!END: 2008/07/21
!!!EED: Craig Stuart Sapp
!!!EEV: 2020/08/25
